assets/svg/add-o.svg

<?xml version="1.0" encoding="UTF-8"?>
<svg width="1000px" height="1000px" viewBox="0 0 1000 1000" version="1.1" xmlns="http://www.w3.org/2000/svg" xmlns:xlink="http://www.w3.org/1999/xlink">
    <!-- Generator: sketchtool 52.4 (67378) - http://www.bohemiancoding.com/sketch -->
    <title>add-o</title>
    <desc>Created with sketchtool.</desc>
    <g id="新版图标" stroke="none" stroke-width="1" fill="none" fill-rule="evenodd">
        <g id="add-o" fill="#323233">
            <g id="圆角-加号-线">
                <path d="M472.222222,472.442285 L472.222222,250.720063 C472.222222,250.443921 472.44608,250.220063 472.722222,250.220063 L527.277778,250.220063 C527.55392,250.220063 527.777778,250.443921 527.777778,250.720063 L527.777778,472.442285 L749.5,472.442285 C749.776142,472.442285 750,472.666143 750,472.942285 L750,527.497841 C750,527.773983 749.776142,527.997841 749.5,527.997841 L527.777778,527.997841 L527.777778,749.720063 C527.777778,749.996205 527.55392,750.220063 527.277778,750.220063 L472.722222,750.220063 C472.44608,750.220063 472.222222,749.996205 472.222222,749.720063 L472.222222,527.997841 L250.5,527.997841 C250.223858,527.997841 250,527.773983 250,527.497841 L250,472.942285 C250,472.666143 250.223858,472.442285 250.5,472.442285 L472.222222,472.442285 Z M500,944.444444 C254.540111,944.444444 55.5555556,745.459889 55.5555556,500 C55.5555556,254.540111 254.540111,55.5555556 500,55.5555556 C745.459889,55.5555556 944.444444,254.540111 944.444444,500 C944.444444,745.459889 745.459889,944.444444 500,944.444444 Z M500,888.888889 C714.777403,888.888889 888.888889,714.777403 888.888889,500 C888.888889,285.222597 714.777403,111.111111 500,111.111111 C285.222597,111.111111 111.111111,285.222597 111.111111,500 C111.111111,714.777403 285.222597,888.888889 500,888.888889 Z" id="Combined-Shape"></path>
            </g>
        </g>
    </g>
</svg>

<svg width="1000" height="1000" xmlns="http://www.w3.org/2000/svg"><path d="M472.222 472.442V250.72a.5.5 0 0 1 .5-.5h54.556a.5.5 0 0 1 .5.5v221.722H749.5a.5.5 0 0 1 .5.5v54.556a.5.5 0 0 1-.5.5H527.778V749.72a.5.5 0 0 1-.5.5h-54.556a.5.5 0 0 1-.5-.5V527.998H250.5a.5.5 0 0 1-.5-.5v-54.556a.5.5 0 0 1 .5-.5h221.722zM500 944.444C254.54 944.444 55.556 745.46 55.556 500S254.54 55.556 500 55.556 944.444 254.54 944.444 500 745.46 944.444 500 944.444zm0-55.555c214.777 0 388.889-174.112 388.889-388.889 0-214.777-174.112-388.889-388.889-388.889-214.777 0-388.889 174.112-388.889 388.889 0 214.777 174.112 388.889 388.889 388.889z" fill="#323233" fill-rule="evenodd"/></svg>
